X: 79
T: No_40_War_Bundle_Dance_Song_(a).krn
N: Derived from No_40_War_Bundle_Dance_Song_(a).krn
%%abc-version 2.0
%%abcx-abcm2ps-target-version 5.9.1 (29 Sep 2008)
%%abc-creator hum2abc beta
%%abcx-conversion-date 2019/03/15 08:35:44
%%humdrum-veritas 372282429
%%humdrum-veritas-data 1852786941
%%linebreak <none>
%%barnumbers 0
L: 1/8
M: 2/4
K: A clef=bass
[K:clef=bass][M:2/4]z2(3B,B,B, | 
B,2B,2 ||  
[M:3/4]B,B, A,/A,/A, (3B,B,A, ||  
[M:2/4]A,2A,2 ||  
[M:3/4]F,E, E,/E,/E,/ z/ (3A,A,B, ||  
[M:2/4]A,2A,2 ||  
[M:3/4]F,E, E,/E,/E, (3F,F,F, ||  
[M:2/4]E,2E,2 ||  
[M:3/4]D,C, B,,/B,,/B,,/ z/ C,B,, ||  
[M:2/4]A,,2A,,2 | 
B,,B,, A,,/A,,/A,, | 
z3B, | 
=C3/B,/ (3B,B,B, ||  
[M:3/8]B,=CB,3//A,// ||  
[M:2/4]A,(3:2:2A,/E, E,E, | 
E, z (3A,A,B, | 
A,2A,2 ||  
[M:3/4]A,A, (3F,F,F, (3A,A,B, ||  
[M:2/4]A,2A,2 ||  
[M:3/4]A,F, E,/E,/E,/ z/ (3E,E,F, ||  
[M:2/4]E,2E,2 ||  
[M:3/4]D,C, B,,/B,,/B,, C,B,, | 
A,,2A,,2(3B,,B,,B,, | 
A,,2A,, z (3B,,B,,B,, | 
A,,2A,,2(3A,,A,,A,, | 
A,,2A,,2z2 |]  



